Newaita-dark/mimetypes/22/application-x-cbr.svg

<svg height="22" viewBox="0 0 22 22" width="22" xmlns="http://www.w3.org/2000/svg" xmlns:xlink="http://www.w3.org/1999/xlink"><linearGradient id="a" gradientUnits="userSpaceOnUse" x1="10.9151136" x2="10.9151136" y1="19.27333715" y2="20.18293042919"><stop offset="0" stop-opacity=".27451"/><stop offset="1" stop-opacity="0"/></linearGradient><linearGradient id="b"><stop offset="0" stop-opacity=".313726"/><stop offset=".222222" stop-opacity=".27451"/><stop offset="1" stop-opacity="0"/></linearGradient><radialGradient id="c" cx="450.908936" cy="189.579361" gradientTransform="matrix(.00000012 -.0537161 -.0966889 -.00000007 34.475434 43.721791)" gradientUnits="userSpaceOnUse" r="21.166656" xlink:href="#b"/><radialGradient id="d" cx="450.908936" cy="189.579361" gradientTransform="matrix(-.00000012 .0537161 .0966889 .00000007 -12.645221 -5.175143)" gradientUnits="userSpaceOnUse" r="21.166656" xlink:href="#b"/><radialGradient id="e" cx="450.908936" cy="189.579361" gradientTransform="matrix(-.00000012 -.0537161 .0966889 -.00000007 -12.645221 43.721791)" gradientUnits="userSpaceOnUse" r="21.166656" xlink:href="#b"/><radialGradient id="f" cx="450.908936" cy="189.579361" gradientTransform="matrix(.00000012 .0537161 -.0966889 .00000007 34.475433 -5.175142)" gradientUnits="userSpaceOnUse" r="21.166656" xlink:href="#b"/><linearGradient id="g" gradientTransform="matrix(.0518029 0 0 .149471 -4.024634 23.128427)" gradientUnits="userSpaceOnUse" x1="306.916656" x2="305.954559" y1="-25.791676" y2="-141.414581"><stop offset="0" stop-color="#80cbc4"/><stop offset="1" stop-color="#b2dfdb"/></linearGradient><linearGradient id="h"><stop offset="0" stop-color="#26a69a"/><stop offset="1" stop-color="#4db6ac"/></linearGradient><linearGradient id="i" gradientTransform="matrix(4.556143 0 0 13.146184 -353.972656 2034.180176)" gradientUnits="userSpaceOnUse" x1="165.484848" x2="165.484848" xlink:href="#h" y1="-25.791672" y2="-141.414581"/><linearGradient id="j" gradientUnits="userSpaceOnUse" x1="11.36991358338" x2="11.36991358338" xlink:href="#h" y1="19.27333515" y2="1.99106765838"/><path d="m5.457031 19.273438h10.914063v.910156h-10.914063zm0 0" fill="url(#a)"/><path d="m16.371094 19.273438h1.820312v-.910157h-1.820312zm0 0" fill="url(#c)"/><path d="m5.457031 19.273438h-1.820312v.910156h1.820312zm0 0" fill="url(#d)"/><path d="m5.457031 19.273438h-1.820312v-.910157h1.820312zm0 0" fill="url(#e)"/><path d="m16.371094 19.273438h1.820312v.910156h-1.820312zm0 0" fill="url(#f)"/><path d="m4.546875 1.992188h12.734375c.503906 0 .910156.40625.910156.910156v15.460937c0 .503907-.40625.910157-.910156.910157h-12.734375c-.5 0-.910156-.40625-.910156-.910157v-15.460937c0-.503906.410156-.910156.910156-.910156zm0 0" fill="url(#g)"/><path d="m399.904566 175.215918c-44.31932 0-80.049625 35.730305-80.049625 80.049626v1359.81295c0 44.31932 35.730305 80.049625 80.049625 80.049625h120.246219v-1519.912201zm0 0" fill="url(#i)" stroke="#212121" stroke-linecap="round" stroke-width="11.338583" transform="scale(.0113699)"/><path d="m4.546875 19.222656c-.503906 0-.910156-.40625-.910156-.910156v-.113281c0 .503906.40625.910156.910156.910156h12.734375c.503906 0 .910156-.40625.910156-.910156v.113281c0 .503906-.40625.910156-.910156.910156zm0 0" fill-opacity=".196078"/><path d="m4.546875 2.042969c-.503906 0-.910156.40625-.910156.910156v.113281c0-.503906.40625-.910156.910156-.910156h12.734375c.503906 0 .910156.40625.910156.910156v-.113281c0-.503906-.40625-.910156-.910156-.910156zm0 0" fill="#fff" fill-opacity=".392157"/><path d="m4.546875 1.925781c-.539063 0-.972656.4375-.972656.976563v15.460937c0 .539063.433593.972657.972656.972657h12.734375c.539062 0 .976562-.433594.976562-.972657v-15.460937c0-.539063-.4375-.976563-.976562-.976563zm0 .128907h12.734375c.46875 0 .847656.375.847656.847656v15.460937c0 .46875-.378906.84375-.847656.84375h-12.734375c-.46875 0-.84375-.375-.84375-.84375v-15.460937c0-.472656.375-.847656.84375-.847656zm0 0" fill="#212121"/><path d="m8.414062 6.539062c-.378906 0-.683593.304688-.683593.683594v5c0 .378906.304687.683594.683593.683594h5.042969l1.6875 1.683594c.285157.285156.769531.082031.769531-.320313v-1.402343c.269532-.089844.457032-.34375.457032-.644532v-5c0-.378906-.300782-.683594-.679688-.683594zm0 0" fill="url(#j)"/><path d="m8.414062 6.539062c-.378906 0-.683593.304688-.683593.683594v.226563c0-.378907.304687-.683594.683593-.683594h7.277344c.378906 0 .679688.304687.679688.683594v-.226563c0-.378906-.300782-.683594-.679688-.683594zm0 0" fill-opacity=".235294"/><path d="m7.730469 12.261719v.191406c0 .375.304687.679687.683593.679687h5.042969l1.6875 1.683594c.285157.285156.769531.085938.769531-.320312v-.1875c0 .402344-.484374.605468-.769531.320312l-1.6875-1.683594h-5.042969c-.378906 0-.683593-.304687-.683593-.683593zm8.640625 0c0 .300781-.1875.550781-.457032.644531v.1875c.269532-.089844.457032-.34375.457032-.640625zm0 0" fill="#fff" fill-opacity=".392157"/><path d="m195.799484-62.832713c-8.81734 0-15.907572 7.090232-15.907572 15.907572v116.352525c0 8.81734 7.090232 15.907572 15.907572 15.907572h117.35243l39.268977 39.178077c6.63573 6.63573 17.907381 1.908908 17.907381-7.453834v-32.633247c6.272128-2.09071 10.635348-7.999236 10.635348-14.998568v-116.352525c0-8.81734-6.999332-15.907572-15.816672-15.907572zm0 0" fill="none" stroke="#212121" stroke-linecap="round" stroke-linejoin="round" stroke-width="3" transform="matrix(.0429729 0 0 .0429729 0 9.239163)"/></svg>

<svg xmlns="http://www.w3.org/2000/svg" xmlns:xlink="http://www.w3.org/1999/xlink" width="22px" height="22px" viewBox="0 0 22 22" version="1.1">
<defs>
<linearGradient id="linear0" gradientUnits="userSpaceOnUse" x1="31.75304" y1="56.067871" x2="31.75304" y2="58.713959" gradientTransform="matrix(0.34375,0,0,0.34375,0,0)">
<stop offset="0" style="stop-color:rgb(0%,0%,0%);stop-opacity:0.27451;"/>
<stop offset="1" style="stop-color:rgb(0%,0%,0%);stop-opacity:0;"/>
</linearGradient>
<radialGradient id="radial0" gradientUnits="userSpaceOnUse" cx="450.908936" cy="189.579361" fx="450.908936" fy="189.579361" r="21.166656" gradientTransform="matrix(0.000000120312,-0.0537161,-0.096689,-0.00000006875,34.475433,43.721792)">
<stop offset="0" style="stop-color:rgb(0%,0%,0%);stop-opacity:0.313726;"/>
<stop offset="0.222222" style="stop-color:rgb(0%,0%,0%);stop-opacity:0.27451;"/>
<stop offset="1" style="stop-color:rgb(0%,0%,0%);stop-opacity:0;"/>
</radialGradient>
<radialGradient id="radial1" gradientUnits="userSpaceOnUse" cx="450.908936" cy="189.579361" fx="450.908936" fy="189.579361" r="21.166656" gradientTransform="matrix(-0.000000120312,0.0537161,0.096689,0.00000006875,-12.645221,-5.175143)">
<stop offset="0" style="stop-color:rgb(0%,0%,0%);stop-opacity:0.313726;"/>
<stop offset="0.222222" style="stop-color:rgb(0%,0%,0%);stop-opacity:0.27451;"/>
<stop offset="1" style="stop-color:rgb(0%,0%,0%);stop-opacity:0;"/>
</radialGradient>
<radialGradient id="radial2" gradientUnits="userSpaceOnUse" cx="450.908936" cy="189.579361" fx="450.908936" fy="189.579361" r="21.166656" gradientTransform="matrix(-0.000000120312,-0.0537161,0.096689,-0.00000006875,-12.645221,43.721792)">
<stop offset="0" style="stop-color:rgb(0%,0%,0%);stop-opacity:0.313726;"/>
<stop offset="0.222222" style="stop-color:rgb(0%,0%,0%);stop-opacity:0.27451;"/>
<stop offset="1" style="stop-color:rgb(0%,0%,0%);stop-opacity:0;"/>
</radialGradient>
<radialGradient id="radial3" gradientUnits="userSpaceOnUse" cx="450.908936" cy="189.579361" fx="450.908936" fy="189.579361" r="21.166656" gradientTransform="matrix(0.000000120312,0.0537161,-0.096689,0.00000006875,34.475433,-5.175142)">
<stop offset="0" style="stop-color:rgb(0%,0%,0%);stop-opacity:0.313726;"/>
<stop offset="0.222222" style="stop-color:rgb(0%,0%,0%);stop-opacity:0.27451;"/>
<stop offset="1" style="stop-color:rgb(0%,0%,0%);stop-opacity:0;"/>
</radialGradient>
<linearGradient id="linear1" gradientUnits="userSpaceOnUse" x1="306.916656" y1="-25.791676" x2="305.954559" y2="-141.414581" gradientTransform="matrix(0.0518028,0,0,0.149471,-4.024634,23.128428)">
<stop offset="0" style="stop-color:rgb(50.196081%,79.607844%,76.862746%);stop-opacity:1;"/>
<stop offset="1" style="stop-color:rgb(69.803923%,87.450981%,85.882354%);stop-opacity:1;"/>
</linearGradient>
<linearGradient id="linear2" gradientUnits="userSpaceOnUse" x1="165.484848" y1="-25.791672" x2="165.484848" y2="-141.414581" gradientTransform="matrix(4.556143,0,0,13.146184,-353.972656,2034.180176)">
<stop offset="0" style="stop-color:rgb(14.901961%,65.098041%,60.392159%);stop-opacity:1;"/>
<stop offset="1" style="stop-color:rgb(30.19608%,71.372551%,67.450982%);stop-opacity:1;"/>
</linearGradient>
<linearGradient id="linear3" gradientUnits="userSpaceOnUse" x1="33.076092" y1="56.067867" x2="33.076092" y2="5.79221" gradientTransform="matrix(0.34375,0,0,0.34375,0,0)">
<stop offset="0" style="stop-color:rgb(14.901961%,65.098041%,60.392159%);stop-opacity:1;"/>
<stop offset="1" style="stop-color:rgb(30.19608%,71.372551%,67.450982%);stop-opacity:1;"/>
</linearGradient>
</defs>
<g id="surface1">
<path style=" stroke:none;fill-rule:nonzero;fill:url(#linear0);" d="M 5.457031 19.273438 L 16.371094 19.273438 L 16.371094 20.183594 L 5.457031 20.183594 Z M 5.457031 19.273438 "/>
<path style=" stroke:none;fill-rule:nonzero;fill:url(#radial0);" d="M 16.371094 19.273438 L 18.191406 19.273438 L 18.191406 18.363281 L 16.371094 18.363281 Z M 16.371094 19.273438 "/>
<path style=" stroke:none;fill-rule:nonzero;fill:url(#radial1);" d="M 5.457031 19.273438 L 3.640625 19.273438 L 3.640625 20.183594 L 5.457031 20.183594 Z M 5.457031 19.273438 "/>
<path style=" stroke:none;fill-rule:nonzero;fill:url(#radial2);" d="M 5.457031 19.273438 L 3.640625 19.273438 L 3.640625 18.363281 L 5.457031 18.363281 Z M 5.457031 19.273438 "/>
<path style=" stroke:none;fill-rule:nonzero;fill:url(#radial3);" d="M 16.371094 19.273438 L 18.191406 19.273438 L 18.191406 20.183594 L 16.371094 20.183594 Z M 16.371094 19.273438 "/>
<path style=" stroke:none;fill-rule:nonzero;fill:url(#linear1);" d="M 4.546875 1.992188 L 17.28125 1.992188 C 17.785156 1.992188 18.191406 2.398438 18.191406 2.898438 L 18.191406 18.363281 C 18.191406 18.867188 17.785156 19.273438 17.28125 19.273438 L 4.546875 19.273438 C 4.046875 19.273438 3.640625 18.867188 3.640625 18.363281 L 3.640625 2.898438 C 3.640625 2.398438 4.046875 1.992188 4.546875 1.992188 Z M 4.546875 1.992188 "/>
<path style="fill-rule:nonzero;fill:url(#linear2);stroke-width:11.338583;stroke-linecap:round;stroke-linejoin:miter;stroke:rgb(12.941177%,12.941177%,12.941177%);stroke-opacity:1;stroke-miterlimit:4;" d="M 399.904242 175.215776 C 355.584958 175.215776 320.198242 210.946052 320.198242 255.265337 L 320.198242 1615.077185 C 320.198242 1659.396469 355.584958 1695.126745 399.904242 1695.126745 L 520.150363 1695.126745 L 520.150363 175.215776 Z M 399.904242 175.215776 " transform="matrix(0.0113699,0,0,0.0113699,0,0)"/>
<path style=" stroke:none;fill-rule:nonzero;fill:rgb(0%,0%,0%);fill-opacity:0.196078;" d="M 4.546875 19.222656 C 4.042969 19.222656 3.640625 18.816406 3.640625 18.3125 L 3.640625 18.199219 C 3.640625 18.703125 4.042969 19.109375 4.546875 19.109375 L 17.28125 19.109375 C 17.785156 19.109375 18.191406 18.703125 18.191406 18.199219 L 18.191406 18.3125 C 18.191406 18.816406 17.785156 19.222656 17.28125 19.222656 Z M 4.546875 19.222656 "/>
<path style=" stroke:none;fill-rule:nonzero;fill:rgb(100%,100%,100%);fill-opacity:0.392157;" d="M 4.546875 2.042969 C 4.042969 2.042969 3.640625 2.449219 3.640625 2.953125 L 3.640625 3.066406 C 3.640625 2.5625 4.042969 2.15625 4.546875 2.15625 L 17.28125 2.15625 C 17.785156 2.15625 18.191406 2.5625 18.191406 3.066406 L 18.191406 2.953125 C 18.191406 2.449219 17.785156 2.042969 17.28125 2.042969 Z M 4.546875 2.042969 "/>
<path style=" stroke:none;fill-rule:nonzero;fill:rgb(12.941177%,12.941177%,12.941177%);fill-opacity:1;" d="M 4.546875 1.925781 C 4.007812 1.925781 3.574219 2.363281 3.574219 2.898438 L 3.574219 18.363281 C 3.574219 18.902344 4.007812 19.335938 4.546875 19.335938 L 17.28125 19.335938 C 17.820312 19.335938 18.257812 18.902344 18.257812 18.363281 L 18.257812 2.898438 C 18.257812 2.363281 17.820312 1.925781 17.28125 1.925781 Z M 4.546875 2.054688 L 17.28125 2.054688 C 17.75 2.054688 18.128906 2.433594 18.128906 2.898438 L 18.128906 18.363281 C 18.128906 18.832031 17.75 19.207031 17.28125 19.207031 L 4.546875 19.207031 C 4.078125 19.207031 3.703125 18.832031 3.703125 18.363281 L 3.703125 2.898438 C 3.703125 2.433594 4.078125 2.054688 4.546875 2.054688 Z M 4.546875 2.054688 "/>
<path style=" stroke:none;fill-rule:nonzero;fill:url(#linear3);" d="M 8.414062 6.539062 C 8.035156 6.539062 7.730469 6.84375 7.730469 7.222656 L 7.730469 12.226562 C 7.730469 12.601562 8.035156 12.90625 8.414062 12.90625 L 13.457031 12.90625 L 15.140625 14.589844 C 15.429688 14.875 15.914062 14.671875 15.914062 14.269531 L 15.914062 12.867188 C 16.183594 12.773438 16.371094 12.523438 16.371094 12.226562 L 16.371094 7.222656 C 16.371094 6.84375 16.070312 6.539062 15.691406 6.539062 Z M 8.414062 6.539062 "/>
<path style=" stroke:none;fill-rule:nonzero;fill:rgb(0%,0%,0%);fill-opacity:0.235294;" d="M 8.414062 6.539062 C 8.035156 6.539062 7.730469 6.84375 7.730469 7.222656 L 7.730469 7.449219 C 7.730469 7.070312 8.035156 6.765625 8.414062 6.765625 L 15.691406 6.765625 C 16.070312 6.765625 16.371094 7.070312 16.371094 7.449219 L 16.371094 7.222656 C 16.371094 6.84375 16.070312 6.539062 15.691406 6.539062 Z M 8.414062 6.539062 "/>
<path style=" stroke:none;fill-rule:nonzero;fill:rgb(100%,100%,100%);fill-opacity:0.392157;" d="M 7.730469 12.261719 L 7.730469 12.453125 C 7.730469 12.828125 8.035156 13.132812 8.414062 13.132812 L 13.457031 13.132812 L 15.140625 14.816406 C 15.429688 15.101562 15.914062 14.902344 15.914062 14.496094 L 15.914062 14.308594 C 15.914062 14.710938 15.429688 14.914062 15.140625 14.628906 L 13.457031 12.945312 L 8.414062 12.945312 C 8.035156 12.945312 7.730469 12.640625 7.730469 12.261719 Z M 16.371094 12.261719 C 16.371094 12.558594 16.183594 12.8125 15.914062 12.90625 L 15.914062 13.097656 C 16.183594 13.003906 16.371094 12.75 16.371094 12.453125 Z M 16.371094 12.261719 "/>
<path style="fill:none;stroke-width:3;stroke-linecap:round;stroke-linejoin:round;stroke:rgb(12.941177%,12.941177%,12.941177%);stroke-opacity:1;stroke-miterlimit:4;" d="M 195.799392 -62.832675 C 186.982057 -62.832675 179.891828 -55.742447 179.891828 -46.925111 L 179.891828 69.51826 C 179.891828 78.244696 186.982057 85.334924 195.799392 85.334924 L 313.151767 85.334924 L 352.329826 124.512983 C 359.056453 131.14871 370.328098 126.512791 370.328098 117.059153 L 370.328098 84.425921 C 376.600224 82.244312 380.963441 76.426688 380.963441 69.51826 L 380.963441 -46.925111 C 380.963441 -55.742447 373.964113 -62.832675 365.146777 -62.832675 Z M 195.799392 -62.832675 " transform="matrix(0.0429729,0,0,0.0429729,0,9.239163)"/>
</g>
</svg>
